X: 59
T:Lasses Fashion
R:Reel
B:Kerr's
M:C
D: Jock Tamson`s Bairns- Lassses Fashion
L:1/8
K:A
c||: AF (3FFF AEEc|AF (3FFF c2 Bc| AF (3FFF AEEA|FGAB c2 Bc :|
eAfA cBBf| eAfe c2 ca| eAfA cABc| AFAB c2 Bc|
eAfA cBBf| eAfe c2 ca| agfa eacA| FGAB cABc |
